Numix-Light/16/status/weather-none-available.svg

<?xml version="1.0" encoding="UTF-8" standalone="no"?>
<svg
   xmlns:dc="http://purl.org/dc/elements/1.1/"
   xmlns:cc="http://creativecommons.org/ns#"
   xmlns:rdf="http://www.w3.org/1999/02/22-rdf-syntax-ns#"
   xmlns:svg="http://www.w3.org/2000/svg"
   xmlns="http://www.w3.org/2000/svg"
   xmlns:sodipodi="http://sodipodi.sourceforge.net/DTD/sodipodi-0.dtd"
   xmlns:inkscape="http://www.inkscape.org/namespaces/inkscape"
   width="16"
   viewBox="0 0 16 16"
   height="16"
   style="enable-background:new"
   id="svg13559"
   version="1.1"
   inkscape:version="0.91 r"
   sodipodi:docname="weather-none-available.svg">
  <metadata
     id="metadata13664">
    <rdf:RDF>
      <cc:Work
         rdf:about="">
        <dc:format>image/svg+xml</dc:format>
        <dc:type
           rdf:resource="http://purl.org/dc/dcmitype/StillImage" />
        <dc:title></dc:title>
      </cc:Work>
    </rdf:RDF>
  </metadata>
  <sodipodi:namedview
     pagecolor="#ffffff"
     bordercolor="#666666"
     borderopacity="1"
     objecttolerance="10"
     gridtolerance="10"
     guidetolerance="10"
     inkscape:pageopacity="0"
     inkscape:pageshadow="2"
     inkscape:window-width="1920"
     inkscape:window-height="1056"
     id="namedview13662"
     showgrid="true"
     inkscape:zoom="10.429825"
     inkscape:cx="-13.158157"
     inkscape:cy="16.907257"
     inkscape:window-x="0"
     inkscape:window-y="24"
     inkscape:window-maximized="1"
     inkscape:current-layer="svg13559">
    <inkscape:grid
       type="xygrid"
       id="grid4152" />
  </sodipodi:namedview>
  <defs
     id="defs13561" />
  <path
     inkscape:connector-curvature="0"
     id="path17697"
     d="m 5.8893307,3.4543725 c -0.1127958,-7.564e-4 -0.2283276,0.00639 -0.3508589,0.024148 -1.9568814,0.2835573 -1.896343,2.173337 -1.896343,2.173337 -0.801506,0.1533876 -1.4574141,0.940979 -1.4574141,1.7642383 0,0.8232724 0.8381154,1.5523743 1.5398021,1.764238 0.4173879,0.1260264 0.961666,0 0.961666,0 0.2477662,0.4918959 1.0666519,0.8196178 1.6363948,0.8196178 0.2722942,0 0.5398481,-0.036917 0.7968902,-0.090911 C 7.1333415,9.725625 7.1642555,9.5476209 7.2331063,9.3848832 7.3114413,9.199727 7.4123254,9.0270321 7.5342484,8.869248 7.6461036,8.7244947 7.7646768,8.589103 7.890789,8.4629908 l 0.00429,-0.00429 0.00284,-0.00284 C 8.0122124,8.3472817 8.1176122,8.2389931 8.2132635,8.1319939 c 0.086458,-0.096629 0.1541724,-0.191344 0.2059698,-0.2855174 0.036881,-0.067056 0.053979,-0.1349378 0.053979,-0.2244355 0,-0.1149673 -0.020524,-0.1572067 -0.089491,-0.2201751 l -0.00567,-0.00567 -0.00567,-0.00567 c -0.04531,-0.04531 -0.1381423,-0.093752 -0.3508591,-0.093752 -0.1803685,0 -0.3483906,0.023142 -0.5085326,0.068183 l -0.00567,0.00145 -0.00567,0.00145 C 7.3436848,7.4073525 7.1698287,7.4766382 6.9803224,7.5795129 L 6.6095149,7.7811596 6.0512656,6.2527212 6.3183162,6.1007297 C 6.5735672,5.9558575 6.8594372,5.8449432 7.1706051,5.7654961 7.4896774,5.6796112 7.8161425,5.6362322 8.1478965,5.6362322 c 0.3954068,0 0.7408344,0.055733 1.038372,0.1846626 0.272358,0.1122546 0.507618,0.2617336 0.688934,0.4588156 0.1720795,0.1870433 0.2998235,0.4042678 0.3707465,0.6406372 0.06335,0.2111424 0.09801,0.4210815 0.09801,0.6292731 0,0.2502964 -0.05027,0.4914835 -0.153411,0.7074003 -0.08554,0.1910582 -0.1955165,0.3690056 -0.3295525,0.5312596 -0.124116,0.1502458 -0.257467,0.293802 -0.400576,0.430406 l -0.0028,0.00284 -0.0043,0.00284 c -0.0098,0.00893 -0.01728,0.019411 -0.02699,0.028408 1.1946635,0.078505 3.0999425,0.1634904 3.6435345,-0.072445 1.162444,-0.5045369 0.801853,-2.0821381 0.02841,-2.6151067 -0.773447,-0.5329664 -1.786966,-0.1576735 -1.786966,-0.1576735 0,0 -0.0056,-1.0838026 -1.099452,-1.6023032 -1.0937781,-0.5184967 -2.0170567,0.626444 -2.0170567,0.626444 0,0 -0.6134888,-1.9655683 -2.3054416,-1.9773104 z"
     style="opacity:0.4;fill:#353535;fill-opacity:1;enable-background:new" />
  <text
     xml:space="preserve"
     style="font-style:normal;font-variant:normal;font-weight:normal;font-stretch:normal;font-size:9.0658989px;line-height:125%;font-family:Ubuntu;-inkscape-font-specification:Ubuntu;letter-spacing:0px;word-spacing:0px;fill:#353535;fill-opacity:1;stroke:none;stroke-width:1px;stroke-linecap:butt;stroke-linejoin:miter;stroke-opacity:1"
     x="6.3532653"
     y="12.427598"
     id="text4154"
     sodipodi:linespacing="125%"><tspan
       sodipodi:role="line"
       id="tspan4156"
       x="6.3532653"
       y="12.427598"
       style="font-style:normal;font-variant:normal;font-weight:500;font-stretch:normal;font-family:Ubuntu;-inkscape-font-specification:'Ubuntu Medium';fill:#353535;fill-opacity:1">?</tspan></text>
</svg>

<svg xmlns="http://www.w3.org/2000/svg" viewBox="0 0 16 16" style="enable-background:new">
 <path d="m 5.889 3.454 c -0.113 -0.001 -0.228 0.006 -0.351 0.024 -1.957 0.284 -1.896 2.173 -1.896 2.173 -0.802 0.153 -1.457 0.941 -1.457 1.764 0 0.823 0.838 1.552 1.54 1.764 0.417 0.126 0.962 0 0.962 0 0.248 0.492 1.067 0.82 1.636 0.82 0.272 0 0.54 -0.037 0.797 -0.091 c 0.014 -0.183 0.045 -0.361 0.114 -0.524 0.078 -0.185 0.179 -0.358 0.301 -0.516 0.112 -0.145 0.23 -0.28 0.357 -0.406 l 0.004 -0.004 0.003 -0.003 c 0.114 -0.109 0.22 -0.217 0.315 -0.324 c 0.086 -0.097 0.154 -0.191 0.206 -0.286 0.037 -0.067 0.054 -0.135 0.054 -0.224 0 -0.115 -0.021 -0.157 -0.089 -0.22 l -0.006 -0.006 -0.006 -0.006 c -0.045 -0.045 -0.138 -0.094 -0.351 -0.094 -0.18 0 -0.348 0.023 -0.509 0.068 l -0.006 0.001 -0.006 0.001 c -0.158 0.039 -0.332 0.109 -0.521 0.212 l -0.371 0.202 -0.558 -1.528 0.267 -0.152 c 0.255 -0.145 0.541 -0.256 0.852 -0.335 0.319 -0.086 0.646 -0.129 0.977 -0.129 c 0.395 0 0.741 0.056 1.038 0.185 0.272 0.112 0.508 0.262 0.689 0.459 0.172 0.187 0.3 0.404 0.371 0.641 0.063 0.211 0.098 0.421 0.098 0.629 0 0.25 -0.05 0.491 -0.153 0.707 -0.086 0.191 -0.196 0.369 -0.33 0.531 -0.124 0.15 -0.257 0.294 -0.401 0.43 l -0.003 0.003 -0.004 0.003 c -0.01 0.009 -0.017 0.019 -0.027 0.028 1.195 0.079 3.1 0.163 3.644 -0.072 1.162 -0.505 0.802 -2.082 0.028 -2.615 -0.773 -0.533 -1.787 -0.158 -1.787 -0.158 0 0 -0.006 -1.084 -1.099 -1.602 -1.094 -0.518 -2.02 0.626 -2.02 0.626 0 0 -0.613 -1.966 -2.305 -1.977 z" style="fill:#353535;opacity:0.4;fill-opacity:1"/>
 <text x="6.353" y="12.428" line-height="125%" style="letter-spacing:0;word-spacing:0;font-size:9.07;font-family:Ubuntu;fill:#353535;fill-opacity:1;font-weight:normal;stroke:none;font-style:normal;font-variant:normal;font-stretch:normal"><tspan x="6.353" y="12.428" style="font-weight:500">?</tspan>
 </text>
</svg>
